X:908
T:What's a' the Steer
R:Country Dances
B:The Athole Collection
M:2/4
L:1/8
K:C
e2 e>d|e2 e<g|e2 e>d|e2 z2|g>a ge|a2 g>e|g>a g>e|d2 ze|
cA GA|c2 e>d|c>A GA|c2 zd|e>f g>e|a2 da|g>e ed|c2 z2||

